64x64/apps/appimagekit-standard-notes.svg

<svg height="64" width="64" xmlns="http://www.w3.org/2000/svg"><rect height="56" opacity=".2" rx="2.8" width="56" x="4" y="5"/><rect fill="#f4f4f7" height="56" rx="2.8" transform="matrix(0 -1 -1 0 0 0)" width="55" x="-60" y="-60"/><path d="m4 18v1h56v-1z" opacity=".2"/><path d="m6.8 4c-1.55 0-2.8 1.25-2.8 2.8v11.2h56v-11.2c0-1.55-1.25-2.8-2.8-2.8z" fill="#086cd6"/><path d="m12 26v3h40v-3zm0 7v3h32v-3zm0 7v3h36v-3zm0 7v3h28v-3z" opacity=".2"/><path d="m6.8 4c-1.55 0-2.8 1.25-2.8 2.8v1c0-1.55 1.25-2.8 2.8-2.8h50.4c1.549 0 2.8 1.25 2.8 2.8v-1c0-1.55-1.251-2.8-2.801-2.8h-50.398z" fill="#f4f4f7" opacity=".2"/></svg>

<svg xmlns="http://www.w3.org/2000/svg" width="64" height="64" version="1"><rect style="opacity:.2" width="56" height="56" x="4" y="5" rx="2.8" ry="2.8"/><rect style="fill:#f4f4f7" width="55" height="56" x="-60" y="-60" rx="2.8" ry="2.8" transform="matrix(0 -1 -1 0 0 0)"/><path style="opacity:.2" d="M4 18v1h56v-1z"/><path style="fill:#086cd6" d="M6.8 4C5.25 4 4 5.25 4 6.8V18h56V6.8C60 5.25 58.75 4 57.2 4z"/><path style="opacity:.2" d="M12 26v3h40v-3zm0 7v3h32v-3zm0 7v3h36v-3zm0 7v3h28v-3z"/><path style="fill:#f4f4f7;opacity:.2" d="M6.8 4C5.25 4 4 5.25 4 6.8v1C4 6.25 5.25 5 6.8 5H57.2C58.749 5 60 6.25 60 7.8v-1C60 5.25 58.749 4 57.199 4H6.801z"/></svg>
